Papirus/32x32/devices/media-optical.svg

<svg xmlns="http://www.w3.org/2000/svg" width="32" height="32" version="1">
 <path opacity=".2" d="m16 3c-7.756 0-14 6.244-14 14s6.244 14 14 14 14-6.244 14-14-6.244-14-14-14zm0 8.4a5.6 5.6 0 0 1 5.6 5.6 5.6 5.6 0 0 1 -5.6 5.6 5.6 5.6 0 0 1 -5.6 -5.6 5.6 5.6 0 0 1 5.6 -5.6z"/>
 <path fill="#848484" d="m16 8.5a7.5 7.5 0 0 0 -7.5 7.5 7.5 7.5 0 0 0 7.5 7.5 7.5 7.5 0 0 0 7.5 -7.5 7.5 7.5 0 0 0 -7.5 -7.5zm0 4.5c1.6569 0 3 1.3431 3 3s-1.3431 3-3 3-3-1.3431-3-3 1.3431-3 3-3z"/>
 <path fill="#e4e4e4" d="m16 2c-7.756 0-14 6.244-14 14s6.244 14 14 14 14-6.244 14-14-6.244-14-14-14zm0 8a6 6 0 0 1 6 6 6 6 0 0 1 -6 6 6 6 0 0 1 -6 -6 6 6 0 0 1 6 -6z"/>
 <path fill="#fff" opacity=".2" d="m16 2c-7.756 0-14 6.244-14 14 0 0.169 0.0195 0.333 0.0254 0.5 0.2637-7.5206 6.3874-13.5 13.975-13.5 7.587 0 13.711 5.9794 13.975 13.5 0.005-0.167 0.025-0.331 0.025-0.5 0-7.756-6.244-14-14-14zm-5.975 14.498a6 6 0 0 0 -0.025 0.502 6 6 0 0 0 6 6 6 6 0 0 0 6 -6 6 6 0 0 0 -0.025 -0.498 6 6 0 0 1 -5.975 5.498 6 6 0 0 1 -5.975 -5.502z"/>
</svg>

<svg xmlns="http://www.w3.org/2000/svg" width="32" height="32" version="1">
 <path d="M 16,3 A 14,14 0 0 0 2,17 14,14 0 0 0 16,31 14,14 0 0 0 30,17 14,14 0 0 0 16,3 Z M 16,11 A 6,6 0 0 1 22,17 6,6 0 0 1 16,23 6,6 0 0 1 10,17 6,6 0 0 1 16,11 Z" style="opacity:0.2"/>
 <path style="fill:#848484" d="M 16 8 A 8 8 0 0 0 8 16 A 8 8 0 0 0 16 24 A 8 8 0 0 0 24 16 A 8 8 0 0 0 16 8 z M 16 13 A 3 3 0 0 1 19 16 A 3 3 0 0 1 16 19 A 3 3 0 0 1 13 16 A 3 3 0 0 1 16 13 z"/>
 <path style="fill:#e4e4e4" d="M 16 2 A 14 14 0 0 0 2 16 A 14 14 0 0 0 16 30 A 14 14 0 0 0 30 16 A 14 14 0 0 0 16 2 z M 16 10 A 6 6 0 0 1 22 16 A 6 6 0 0 1 16 22 A 6 6 0 0 1 10 16 A 6 6 0 0 1 16 10 z"/>
 <path style="opacity:0.2;fill:#ffffff" d="M 16,2 A 14,14 0 0 0 2,16 14,14 0 0 0 2.0215,16.414 14,14 0 0 1 16,3 14,14 0 0 1 29.979,16.586 14,14 0 0 0 30,16 14,14 0 0 0 16,2 Z"/>
</svg>
